X: 86
T: No_47_Dream_Song_Concerning_the_Sun_(a).krn
N: Derived from No_47_Dream_Song_Concerning_the_Sun_(a).krn
%%abc-version 2.0
%%abcx-abcm2ps-target-version 5.9.1 (29 Sep 2008)
%%abc-creator hum2abc beta
%%abcx-conversion-date 2019/03/15 08:35:44
%%humdrum-veritas 4056613294
%%humdrum-veritas-data 2130936446
%%linebreak <none>
%%barnumbers 0
L: 1/4
M: 2/4
K: C clef=bass
[K:clef=bass][M:2/4]DD | 
CC ||  
[M:4/4](CA,/) z/CD | 
C3A, | 
G,G,2z ||  
[M:2/4]CC | 
G,G, ||  
[M:4/4]G,E,/ z/G,A, | 
G,3E, | 
C,C,2z ||  
[M:2/4]D,D, | 
C,C, ||  
[M:4/4](C,A,,/) z/C,D, | 
C,3A,, | 
G,,G,,2z |]  



